X:1545
T:Robin Adair
A:Wyresdale, Lancashire
B:E and J Winder, 1835-41
L:1/8
M:3/4
O:England
Z:Richard Robinson 
%%TUNEURL: http://www.leeds.ac.uk/music/Info/RRTuneBk/gettune/00001246.html
%%ID:00001246
K:D
A2 B2 c2 | d3e f2 | A2 B2 c2 | d6 :: \
f2  f2  f2  | a3A A2 | f2     f2   (fe)  | d3B A2 | \
a2 (gf)(ed) | d3e f2 | (A<d) (B<d) (c<e) | d4 z2 :|
